src/icons/outline/symbols/delete.svg

<svg width="24" height="24" viewBox="0 0 24 24" fill="none" xmlns="http://www.w3.org/2000/svg">
<g clip-path="url(#clip0_402_366)">
<path d="M14.1064 1C14.6651 1.00002 15.2007 1.22218 15.5957 1.61719C15.9907 2.01221 16.2129 2.54783 16.2129 3.10645V4.74512H22.2979C22.6856 4.74512 23 5.05949 23 5.44727C22.9998 5.83484 22.6855 6.14941 22.2979 6.14941H20.166L19.0381 21.0225C19.0121 21.3096 18.916 21.7963 18.5771 22.2246C18.2117 22.6864 17.6306 22.9961 16.8174 22.9961H6.89941C6.56215 23.0161 6.05153 22.968 5.58887 22.6445C5.08383 22.2912 4.75647 21.695 4.69336 20.8535C4.6406 20.1502 4.41682 17.3655 4.16211 14.2012C3.9388 11.427 3.69298 8.36076 3.51758 6.14941H1.70215C1.31452 6.14941 1.00024 5.83484 1 5.44727C1 5.05949 1.31437 4.74512 1.70215 4.74512H7.78711V3.10645C7.78711 2.54783 8.00931 2.01221 8.4043 1.61719C8.79931 1.22218 9.33493 1.00002 9.89355 1H14.1064ZM5.56055 14.0771C5.81586 17.249 6.04087 20.0441 6.09375 20.749C6.13239 21.2635 6.30396 21.4314 6.39355 21.4941C6.51272 21.5775 6.67768 21.6045 6.82617 21.5938C6.84301 21.5925 6.86007 21.5918 6.87695 21.5918H16.8174C17.2382 21.5918 17.3985 21.45 17.4756 21.3525C17.5781 21.2229 17.6259 21.0446 17.6396 20.9004L18.7568 6.16602H4.92676C5.10092 8.36004 5.34163 11.3575 5.56055 14.0771ZM9.89355 9.65918C10.2812 9.65918 10.5955 9.97373 10.5957 10.3613V17.3828C10.5957 17.7706 10.2813 18.085 9.89355 18.085C9.50581 18.0849 9.19141 17.7706 9.19141 17.3828V10.3613C9.19162 9.97375 9.50594 9.65921 9.89355 9.65918ZM14.1064 9.65918C14.4941 9.65922 14.8084 9.97376 14.8086 10.3613V17.3828C14.8086 17.7706 14.4942 18.0849 14.1064 18.085C13.7187 18.085 13.4043 17.7706 13.4043 17.3828V10.3613C13.4045 9.97373 13.7188 9.65918 14.1064 9.65918ZM9.89355 2.4043C9.70736 2.40431 9.52912 2.47869 9.39746 2.61035C9.26582 2.74202 9.19141 2.92026 9.19141 3.10645V4.74512H14.8086V3.10645C14.8086 2.92026 14.7342 2.74202 14.6025 2.61035C14.4709 2.47869 14.2926 2.40431 14.1064 2.4043H9.89355Z" fill="#212121"/>
</g>
<defs>
<clipPath id="clip0_402_366">
<rect width="24" height="24" fill="white"/>
</clipPath>
</defs>
</svg>

<svg xmlns="http://www.w3.org/2000/svg" width="24" height="24" fill="none" viewBox="0 0 24 24"><g clip-path="url(#a)"><path fill="currentColor" d="M14.106 1a2.106 2.106 0 0 1 2.107 2.106v1.64h6.085a.702.702 0 0 1 0 1.403h-2.132l-1.128 14.874a2.3 2.3 0 0 1-.46 1.202c-.366.461-.947.771-1.76.771h-9.92a2.08 2.08 0 0 1-1.31-.351c-.505-.354-.833-.95-.896-1.791-.052-.704-.276-3.488-.53-6.653-.224-2.774-.47-5.84-.645-8.052H1.702a.703.703 0 0 1 0-1.404h6.085V3.106A2.106 2.106 0 0 1 9.894 1zM5.561 14.077c.255 3.172.48 5.967.533 6.672.038.515.21.682.3.745.119.084.284.11.432.1l.051-.002h9.94c.421 0 .581-.142.659-.24a.9.9 0 0 0 .164-.452l1.117-14.734H4.927c.174 2.194.415 5.192.634 7.911M9.894 9.66c.387 0 .701.315.702.702v7.022a.702.702 0 0 1-1.405 0V10.36c0-.387.315-.702.703-.702m4.212 0c.388 0 .702.315.703.702v7.022a.702.702 0 0 1-1.405 0V10.36c0-.387.315-.702.702-.702M9.894 2.404a.7.7 0 0 0-.703.702v1.64h5.618v-1.64a.7.7 0 0 0-.703-.702z"/></g><defs><clipPath id="a"><path fill="currentColor" d="M0 0h24v24H0z"/></clipPath></defs></svg>
